X: 142
T: REEL: Molly Bán
C: C: Trad.; S: Kilfenora Céilí Band; Bothy Band
C: Set Leaders: Anton, Sophie
Z: Anton Zille ed.; leprecawn at The Session
N: https://thesession.org/members/26966/sets/74251
R: Reel
M: 4/4
L: 1/8
Q: 1/2=100
K: Emin
EBBA B2 AG|FDAD BDAF|EBBA B2 B^c|dBAc BEED|
EBBA B2 AG|FDAD BDAF|EBBA ~B3^c|dBAc BE~E2||
e2 Be~e2 fe|dBB^c d2 Bd|e2 Be~e2 fe|dBAc BE~E2
e2 Be~e2 fe|dBB^c d3e|~f3e defe|dBAc BFAF||

